X: 15552
T: Gloomy December
R: waltz
M: 3/4
K: Dminor
a2 (g>f) d2|f2 d>c A2|d2 (c<A) GF|G3 (A/B/) A2|a2 "tr"g>f d2|f2 "tr"d>c A2|
d2 F2 "tr"E>D/4E/4|D6|a2 (g>f) d2|f2 (d>c) A2|d2 ( c<A) (GF)|G3 A/B/ A2|a2 g>f d2|
f2 d>c A2|d2 F2 "tr"E>D/4E/4|D6|F>G A2 A>B/4c/4|G>A/4B/4 A2 A2|f2 e2 d2|
A3 f e>d|a2 (gf) (ed)|a2 (gf) (ed)|f>g "tr"g3 (f/g/)|{g}a6|a2 g>f d2|f2 d>c A2|
d2 c<A GF|G3 A/B/ A2|a2 g>f d2|f2 d>c A2|d2 F2 (E>D/4E/4)|D6||

